X: 11274
Q: "Not too quick."
M: 3/4
L: 1/8
K: F
ccf |\
f2(e/f/g)f2 | e2-efed | d2c2df | f2fccf |\
f2e/f/gf2 | e2-efed | d2c2df | f2f |]
ccA |\
c2-cddc | d2-daba | g2f2eg | g2-gcBA |\


